X: 268
%
U:~=!turn!
T: Johnny Pringle
C:Marshall*
O:Scotland
B:Keith Norman MacDonald : "The Skye collection of the best reels & strathspeys extant" : 1887
Z:Ralph Palmer
R:Strathspey
M:C
L:1/8
K:A dorian
D<GG<g d<G B2 | (D<G)G<g D<GB<g | D<GG<g d<G B2 | {/d}c>AB>G {/B}A>GE>A :|
G<gg>a (b/a/).g/.f/ ~g2 | e>fg>a b<eg<b | e>fg>e d<BB>d | e<gd>B c/B/A/G/ E<A |
G<gg>a (b/a/).g/.f/ g2 | e>fg>a b<ga<b | e>f (a/g/f/e/) d<BB>d | e>gd>B c/B/A/G/ FA |]


